svg/cloud.svg

<?xml version="1.0" encoding="UTF-8" standalone="no"?>
<svg
   width="25"
   height="25"
   viewBox="0 0 25 25"
   fill="none"
   version="1.1"
   id="svg4"
   sodipodi:docname="cloud.svg"
   inkscape:version="1.4 (86a8ad7, 2024-10-11)"
   xmlns:inkscape="http://www.inkscape.org/namespaces/inkscape"
   xmlns:sodipodi="http://sodipodi.sourceforge.net/DTD/sodipodi-0.dtd"
   xmlns="http://www.w3.org/2000/svg"
   xmlns:svg="http://www.w3.org/2000/svg">
  <defs
     id="defs4" />
  <sodipodi:namedview
     id="namedview4"
     pagecolor="#ffffff"
     bordercolor="#000000"
     borderopacity="0.25"
     inkscape:showpageshadow="2"
     inkscape:pageopacity="0.0"
     inkscape:pagecheckerboard="0"
     inkscape:deskcolor="#d1d1d1"
     inkscape:zoom="31.32"
     inkscape:cx="12.5"
     inkscape:cy="12.5"
     inkscape:window-width="1920"
     inkscape:window-height="1001"
     inkscape:window-x="-9"
     inkscape:window-y="-9"
     inkscape:window-maximized="1"
     inkscape:current-layer="svg4" />
  <g
     id="g4"
     transform="translate(0.27111,0.1433)">
    <path
       fill-rule="evenodd"
       clip-rule="evenodd"
       d="m 3.40045,20.1851 c 1.17158,1.1716 3.05719,1.1716 6.82845,1.1716 h 3.9292 c -0.2749,-0.4728 -0.4292,-1.0208 -0.4292,-1.5882 0,-0.816 0.3191,-1.5919 0.8571,-2.1618 h -0.8571 c -0.4142,0 -0.75,-0.3358 -0.75,-0.75 0,-0.4142 0.3358,-0.75 0.75,-0.75 h 1.9282 c 0.5113,-1.2899 1.7267,-2.25 3.2385,-2.25 1.5606,0 2.8095,1.0283 3.2883,2.3805 l 0.0144,0.01 c 0.0306,-0.8178 0.0306,-1.7711 0.0306,-2.8905 v -0.25 H 2.22888 v 0.25 c 0,3.7712 0,5.6569 1.17157,6.8284 z m 2.82843,-1.5784 c -0.41421,0 -0.75,-0.3358 -0.75,-0.75 v -2 c 0,-0.4142 0.33579,-0.75 0.75,-0.75 0.41421,0 0.75,0.3358 0.75,0.75 v 2 c 0,0.4142 -0.33579,0.75 -0.75,0.75 z m 3,0 c -0.41421,0 -0.75,-0.3358 -0.75,-0.75 v -2 c 0,-0.4142 0.33579,-0.75 0.75,-0.75 0.41421,0 0.75,0.3358 0.75,0.75 v 2 c 0,0.4142 -0.33579,0.75 -0.75,0.75 z"
       fill="#2d2d2d"
       id="path1" />
    <path
       fill-rule="evenodd"
       clip-rule="evenodd"
       d="M 3.40045,4.52827 C 2.22888,5.69985 2.22888,7.58546 2.22888,11.3567 v 0.25 H 22.2289 v -0.25 c 0,-3.77124 0,-5.65685 -1.1716,-6.82843 C 19.8858,3.3567 18.0001,3.3567 14.2289,3.3567 h -4 c -3.77126,0 -5.65687,0 -6.82845,1.17157 z M 9.22888,9.6067 c -0.41421,0 -0.75,-0.33579 -0.75,-0.75 v -2 c 0,-0.41421 0.33579,-0.75 0.75,-0.75 0.41421,0 0.75,0.33579 0.75,0.75 v 2 c 0,0.41421 -0.33579,0.75 -0.75,0.75 z m -3.75,-0.75 c 0,0.41421 0.33579,0.75 0.75,0.75 0.41421,0 0.75,-0.33579 0.75,-0.75 v -2 c 0,-0.41421 -0.33579,-0.75 -0.75,-0.75 -0.41421,0 -0.75,0.33579 -0.75,0.75 z m 7.50002,-1 c 0,-0.41421 0.3358,-0.75 0.75,-0.75 h 4.5 c 0.4142,0 0.75,0.33579 0.75,0.75 0,0.41421 -0.3358,0.75 -0.75,0.75 h -4.5 c -0.4142,0 -0.75,-0.33579 -0.75,-0.75 z"
       fill="#2d2d2d"
       id="path2" />
    <path
       fill-rule="evenodd"
       clip-rule="evenodd"
       d="m 20.8832,17.2373 c -0.1113,-1.058 -0.9587,-1.8806 -1.9876,-1.8806 -0.8451,0 -1.5678,0.555 -1.8607,1.3395 -0.0899,0.2409 -0.1393,0.5034 -0.1393,0.7781 0,0.2587 0.0438,0.5066 0.124,0.7357 -0.0941,-0.0195 -0.1913,-0.0298 -0.2907,-0.0298 -0.4399,0 -0.8356,0.2005 -1.1099,0.5199 -0.2424,0.2821 -0.3901,0.657 -0.3901,1.0684 0,0.8771 0.6716,1.5882 1.5,1.5882 h 3.5 c 1.1046,0 2,-0.9481 2,-2.1176 0,-0.927 -0.5625,-1.7148 -1.3457,-2.0018 z"
       fill="#2d2d2d"
       id="path3" />
    <path
       d="m 20.8832,17.2373 c -0.1113,-1.058 -0.9587,-1.8806 -1.9876,-1.8806 -0.8451,0 -1.5678,0.555 -1.8607,1.3395 -0.0899,0.2409 -0.1393,0.5034 -0.1393,0.7781 0,0.2587 0.0438,0.5066 0.124,0.7357 -0.0941,-0.0195 -0.1913,-0.0298 -0.2907,-0.0298 -0.4399,0 -0.8356,0.2005 -1.1099,0.5199 -0.2424,0.2821 -0.3901,0.657 -0.3901,1.0684 0,0.8771 0.6716,1.5882 1.5,1.5882 h 3.5 c 1.1046,0 2,-0.9481 2,-2.1176 0,-0.927 -0.5625,-1.7148 -1.3457,-2.0018 z"
       fill="#2d2d2d"
       id="path4" />
  </g>
</svg>

<svg width="25" height="25" viewBox="0 0 25 25" fill="none" xmlns="http://www.w3.org/2000/svg">
<path fill-rule="evenodd" clip-rule="evenodd" d="M3.40045 20.1851C4.57203 21.3567 6.45764 21.3567 10.2289 21.3567H14.1581C13.8832 20.8839 13.7289 20.3359 13.7289 19.7685C13.7289 18.9525 14.048 18.1766 14.586 17.6067H13.7289C13.3147 17.6067 12.9789 17.2709 12.9789 16.8567C12.9789 16.4425 13.3147 16.1067 13.7289 16.1067H15.6571C16.1684 14.8168 17.3838 13.8567 18.8956 13.8567C20.4562 13.8567 21.7051 14.885 22.1839 16.2372L22.1983 16.2472C22.2289 15.4294 22.2289 14.4761 22.2289 13.3567V13.1067H2.22888V13.3567C2.22888 17.1279 2.22888 19.0136 3.40045 20.1851ZM6.22888 18.6067C5.81467 18.6067 5.47888 18.2709 5.47888 17.8567V15.8567C5.47888 15.4425 5.81467 15.1067 6.22888 15.1067C6.64309 15.1067 6.97888 15.4425 6.97888 15.8567V17.8567C6.97888 18.2709 6.64309 18.6067 6.22888 18.6067ZM9.22888 18.6067C8.81467 18.6067 8.47888 18.2709 8.47888 17.8567V15.8567C8.47888 15.4425 8.81467 15.1067 9.22888 15.1067C9.64309 15.1067 9.97888 15.4425 9.97888 15.8567V17.8567C9.97888 18.2709 9.64309 18.6067 9.22888 18.6067Z" fill="#2D2D2D"/>
<path fill-rule="evenodd" clip-rule="evenodd" d="M3.40045 4.52827C2.22888 5.69985 2.22888 7.58546 2.22888 11.3567V11.6067H22.2289V11.3567C22.2289 7.58546 22.2289 5.69985 21.0573 4.52827C19.8858 3.3567 18.0001 3.3567 14.2289 3.3567H10.2289C6.45764 3.3567 4.57203 3.3567 3.40045 4.52827ZM9.22888 9.6067C8.81467 9.6067 8.47888 9.27091 8.47888 8.8567V6.8567C8.47888 6.44249 8.81467 6.1067 9.22888 6.1067C9.64309 6.1067 9.97888 6.44249 9.97888 6.8567V8.8567C9.97888 9.27091 9.64309 9.6067 9.22888 9.6067ZM5.47888 8.8567C5.47888 9.27091 5.81467 9.6067 6.22888 9.6067C6.64309 9.6067 6.97888 9.27091 6.97888 8.8567V6.8567C6.97888 6.44249 6.64309 6.1067 6.22888 6.1067C5.81467 6.1067 5.47888 6.44249 5.47888 6.8567V8.8567ZM12.9789 7.8567C12.9789 7.44249 13.3147 7.1067 13.7289 7.1067H18.2289C18.6431 7.1067 18.9789 7.44249 18.9789 7.8567C18.9789 8.27091 18.6431 8.6067 18.2289 8.6067H13.7289C13.3147 8.6067 12.9789 8.27091 12.9789 7.8567Z" fill="#2D2D2D"/>
<path fill-rule="evenodd" clip-rule="evenodd" d="M20.8832 17.2373C20.7719 16.1793 19.9245 15.3567 18.8956 15.3567C18.0505 15.3567 17.3278 15.9117 17.0349 16.6962C16.945 16.9371 16.8956 17.1996 16.8956 17.4743C16.8956 17.733 16.9394 17.9809 17.0196 18.21C16.9255 18.1905 16.8283 18.1802 16.7289 18.1802C16.289 18.1802 15.8933 18.3807 15.619 18.7001C15.3766 18.9822 15.2289 19.3571 15.2289 19.7685C15.2289 20.6456 15.9005 21.3567 16.7289 21.3567H20.2289C21.3335 21.3567 22.2289 20.4086 22.2289 19.2391C22.2289 18.3121 21.6664 17.5243 20.8832 17.2373Z" fill="#2D2D2D"/>
<path d="M20.8832 17.2373C20.7719 16.1793 19.9245 15.3567 18.8956 15.3567C18.0505 15.3567 17.3278 15.9117 17.0349 16.6962C16.945 16.9371 16.8956 17.1996 16.8956 17.4743C16.8956 17.733 16.9394 17.9809 17.0196 18.21C16.9255 18.1905 16.8283 18.1802 16.7289 18.1802C16.289 18.1802 15.8933 18.3807 15.619 18.7001C15.3766 18.9822 15.2289 19.3571 15.2289 19.7685C15.2289 20.6456 15.9005 21.3567 16.7289 21.3567H20.2289C21.3335 21.3567 22.2289 20.4086 22.2289 19.2391C22.2289 18.3121 21.6664 17.5243 20.8832 17.2373Z" fill="#2D2D2D"/>
</svg>
